!!!!SEGMENT: pl-wtm--557--001-003_stojowski-zygmunt--romantische-stucke-op-25-3-idylle.krn
!!!cenid: 19xx:162
!!!COM: Stojowski, Zygmunt
!!!COM-rismID: pe41019736
!!!CDT: 1870-1946
!!!CNT: Polish
!!!GTL: Romantische Stücke Op. 25
!!!OTL: 3. Idylle
!!!OMV: 003
!!!PDT:
!!!AGN:
!!!YEC: Copyright 2022 Narodowy Instytut Fryderyka Chopina (https://polishscores.org)
!!!YEM: License CC-BY-4.0 (https://creativecommons.org/licenses/by/4.0)
!!!SMS-siglum: PL-Wtm
!!!SMS-shelfmark: 557
!!!SMS-variant:
!!!SMS-altvar:
!!!SMS-shelfwork: 001-003 G
!!!NIFC-rismSourceID: 1001211569
!!!NIFC-rismChildID: 1001211569
!!!NIFC-islandoraID: pl-wtm:75301
!!!URL-pdf-islandora: https://repozytorium.nifc.pl/islandora/object/pl-wtm%3A75301/datastream/PDF/view
!!!URL-scan: https://polish.musicsources.pl/pl/lokalizacje/galeria/druki-muzyczne/19410/7 @EN{Scan on Polish Music Sources Website} @PL{Skany w portalu Dziedzictwo Muzyki Polskiej w otwartym dostępie}
!!!IIIF:
!!!ONB-nifc:
!!!OMD: Andantino.
!!!AIN: 1 piano
!!!key: E
**kern	**fing	**kern	**fing	**dynam
*part1	*part1	*part1	*part1	*part1
*staff2	*staff2	*staff1	*staff1	*
*ICklav	*	*ICklav	*	*
*Ipiano	*	*Ipiano	*	*
*I"3.	*	*I"3.	*	*
*clefF4	*	*clefG2	*	*
*k[f#c#g#d#]	*	*k[f#c#g#d#]	*	*
*E:	*	*E:	*	*
*M3/4	*	*M3/4	*	*
=1	=1	=1	=1	=1
*	*	*^	*	*
*	*below	*	*	*	*
!	!	!LO:TX:b:i:t=espressivo	!	!	!LO:DY:rj
4E\ 4G#	3	(8e/L	4B\ [4e	2	p
.	.	8g#/J	.	.	.
[4F#\	2	4.b:/	4c#:\ 4e:]	.	.
4BB\ 4F#]	.	.	4d#\	.	.
.	.	8a/	.	4	.
=2	=2	=2	=2	=2	=2
[4E\	1	12g#/L	4B\	5	.
.	.	12f#/	.	.	.
.	.	12e/J	.	.	.
4AA/ 4E]	3	4c#/ 4g#	2ryy	.	.
4BB/	.	4A/) 4d# 4f#	.	4	.
=3	=3	=3	=3	=3	=3
4EE/ 4BB	.	(8e/L	4B\	5	.
.	.	8c#/J)	.	3	.
2BB\ 2F#	.	(4.c#/	2A\ 2d#	.	.
.	.	[<8B/)	.	.	.
=4	=4	=4	=4	=4	=4
4EE/ 4BB	.	(8e/L	4G#\ 4B]	.	.
.	.	8c#/J)	.	.	.
[2BB\ 2F#	.	(4.c#/	2A\ 2d#	.	.
.	.	8B/)	.	.	.
!!LO:LB:g=original
=5	=5	=5	=5	=5	=5
4EE:/ 4BB:] 4G#:	.	(8e/L	4B\ [4e	.	.
.	.	8g#/J	.	.	.
[4F#\	.	4.b:/	4c#:\ 4e:]	.	.
4BB/ 4F#]	.	.	4d#\	.	.
.	.	8a/	.	.	.
=6	=6	=6	=6	=6	=6
4EE/ 4E	.	12g#/L	4B\	.	.
.	.	12f#/	.	.	.
.	.	12e/J	.	.	.
4AA/	.	4g#/	4B\ 4c#	.	.
4BB/	.	4A/) 4d# 4f#	4ryy	.	.
=7	=7	=7	=7	=7	=7
*	*above	*	*	*	*
4EE/ 4BB	2	(8e/L	4G#\ 4B	.	.
.	.	8c#/J)	.	.	.
*	*below	*	*	*	*
2FF#/ 2E	4	(4.c#/	4G#\ [4A#X	.	.
.	.	.	4F#\ 4A#]	.	.
.	.	8d#/	.	.	.
=8	=8	=8	=8	=8	=8
4BBB/ 4EE	.	8e/L	4G#\ 4B	.	.
.	.	8c#/J)	.	.	.
2FF#/ 2E	.	2A/ 2c#	(4G#X\	.	.
.	.	.	4F#\)	.	.
=9	=9	=9	=9	=9	=9
*^	*	*	*	*	*
2E/	2.GG#\	.	(8B/L	4B\	1	.
.	.	.	8e/J	.	.	.
.	.	.	4.g#/	2B#X\	.	<
4D#/	.	.	.	.	.	.
.	.	.	8f#/	.	3	.
!!LO:LB:g=original
=10	=10	=10	=10	=10	=10	=10
(8E/L	4CC#\	.	8e/L	(8c#\L	.	.
*	*	*above	*	*	*	*
8F#/	.	2	8g#/J	8d#\	1 3	[
*	*	*below	*	*	*below	*
8G#/	2C#\	4	4cc#/	8e\	2	.
8F#/J	.	.	.	8d#\	.	.
*	*	*above	*	*	*above	*
4E/)	.	1	4g#/)	8c#\	2 4	.
.	.	.	.	8A#X\J)	.	.
=11	=11	=11	=11	=11	=11	=11
(4.D#/	2GG#\	2	(8d#/L	(4.B\	2	>
.	.	.	8g#/J	.	.	.
.	.	.	4.b/	.	.	.
8E/	.	.	.	8c#\	.	.
*	*	*below	*	*	*below	*
4BB/)	4FF#\	2 4	.	4d#\)	2	.
.	.	.	8a/	.	.	.
=12	=12	=12	=12	=12	=12	=12
(8B/L	4EE\	.	8g#/L	(8e\L	.	.
*	*	*above	*	*	*above	*
8A/	.	2	8b/J	8f#\	2 4	]
8G#/	2E\	.	4ee/	8e\	.	.
8A/	.	.	.	8f#\	.	.
8G#/	.	.	[4b/)	8e\	5	.
*	*	*	*	*	*below	*
8F#/J)	.	.	.	8d#\J)	2	.
=13	=13	=13	=13	=13	=13	=13
(4.E/	2.AA\	2	(8b/L]	2.c#\	.	.
*	*	*	*	*	*above	*
.	.	.	8a/J	.	4	.
!	!	!	!	!	!	!LO:HP:t=poco cresc.:ext=s
.	.	.	4.e/	.	.	<
!LO:TX:b:i:t=poco marc.	!	!	!	!	!	!
8G#/	.	.	.	.	.	.
[4D#/	.	2	.	.	.	.
.	.	.	8f#/	.	.	.
!!LO:LB:g=original
=14	=14	=14	=14	=14	=14	=14
4.D#/]	2.GG#\	.	8a/L	2.B\	5	.
.	.	.	8g#/J	.	.	.
.	.	.	4.d#/	.	.	.
8F#/	.	.	.	.	.	.
[4C#/	.	.	.	.	.	.
.	.	.	8e/	.	.	.
=15	=15	=15	=15	=15	=15	=15
4C#/]	2.FF#\	.	8g#/	2.A\	.	.
.	.	.	4f#/	.	.	.
2Cn/)	.	.	.	.	.	.
!	!	!	!	!	!	!LO:HP:t=dim.
.	.	.	4e/	.	.	>
.	.	.	8qg#/	.	.	.
.	.	.	8f#/	.	.	.
=16	=16	=16	=16	=16	=16	=16
(4BB/	2.FF#\	.	8e/	2.A\	5	.
!	!	!	!LO:TX:a:i:t=poco rit.	!	!	!
.	.	.	4d#/	.	.	.
8F#/L	.	.	.	.	.	.
8E/J	.	.	4c#/	.	.	.
4D#/)	.	.	.	.	.	.
.	.	.	8B/)	.	.	.
*v	*v	*	*	*	*	*
=17	=17	=17	=17	=17	=17
!	!	!LO:TX:a:i:t=a tempo	!	!	!LO:DY:t=più p
4EE:/ 4G#:	.	(8e/L	4B\ [4e	2	p
.	.	8g#/J	.	.	.
[4F#\	.	4.b:/	(8c#:\L 8e:]	.	<
*	*	*	*	*below	*
.	.	.	8c##X\J	1	[
4BB\ 4F#]	.	.	4d#\)	.	.
*	*	*	*	*above	*
.	.	8a/	.	4	.
!!LO:LB:g=original
=18	=18	=18	=18	=18	=18
*	*	*	*	*^	*
4EE/ 4BB	2	12g#/L	4B\	5	.	.
.	.	12f#/	.	.	.	.
.	.	12e/J	.	.	.	.
*	*	*	*	*below	*above	*
[4A\	.	4g#/	(8c#\L	2	.	<
.	.	.	8c##X\J	1	.	[
4BB\ 4A]	.	4f#/)	4d#\)	2	4	.
*	*	*	*	*v	*v	*
=19	=19	=19	=19	=19	=19
*^	*	*	*	*	*
4EE/ 4BB	4ryy	.	(8e/L	4G#\ 4B	.	.
.	.	.	8c#/J)	.	.	.
(8E#X/L	2BB\	.	(4.c#/	2A\ 2d#	.	.
8F#/J)	.	.	.	.	.	.
4F#/	.	.	.	.	.	.
.	.	.	8B/)	.	.	.
=20	=20	=20	=20	=20	=20	=20
4EE/ 4BB	4ryy	2	(8e/L	4G#\	.	.
.	.	.	8c#/J)	.	.	.
!LO:TX:t=P:problem=klamra łukowa	!	!	!	!	!	!
12E#X/L	2BB\	.	(4.c#/	2A\ 2d#	.	.
12G#/	.	.	.	.	.	.
12F#/J	.	.	.	.	.	.
4F#/	.	.	.	.	.	.
.	.	.	8B/)	.	.	.
=21	=21	=21	=21	=21	=21	=21
!	!	!	!	!	!	!LO:HP:t=poco cresc. ed:ext=s
2BB/ 2G#	(4.EE\	.	(8e/L	[4e\	.	<
.	.	.	[<8g#/J	.	.	.
.	.	.	4.ee/	2e\] 2g#]	.	.
*	*	*below	*	*	*	*
.	8DD#\	4	.	.	.	.
4r	4CC#\)	.	.	.	.	.
.	.	.	8dd#/	.	4	.
!!LO:PB:g=original
=22	=22	=22	=22	=22	=22	=22
.	.	.	(16qqcc#/LL	.	4	.
!	!	!	!LO:TX:b:i:t=incalzando	!	!	!
.	.	.	16qqdd#/JJ	.	.	.
4DD#X/	4ryy	.	12cc#/L)	4e\ 4f##X	.	.
.	.	.	12b/	.	.	.
*	*	*	*	*	*below	*
.	.	.	12a#X/J	.	3	.
(8GG#/L	[4GG#\	.	4.cc#/	4ryy	.	.
[<8D#/J	.	.	.	.	.	.
4GG#/]) 4D#] 4G#	4ryy	.	.	4d#\ 4g#	.	.
.	.	.	8b/)	.	.	.
=23	=23	=23	=23	=23	=23	=23
2.B/	(4.E\	2	(>8e/L 8g#	4ryy	.	.
*	*	*	*	*	*above	*
.	.	.	[8b/J	.	1	.
.	.	.	4.gg#/	2b\]	4	.
.	8D#\	.	.	.	.	.
.	4C#\)	.	.	.	.	.
.	.	.	8ff#/	.	.	.
=24	=24	=24	=24	=24	=24	=24
4FF#/ 4A#X	4ryy	.	12ee/L	4g#\	5	.
.	.	.	12dd#/	.	.	.
.	.	.	12cc#/J	.	.	.
(8BB/L	[4BB\	.	4.ee/	4gn\ 4a#X	.	.
[<8F#/J	.	.	.	.	.	.
4BB\]) 4F#] 4B	4ryy	.	.	4f#\ 4b	.	.
.	.	.	[8dd#/)	.	4	.
=25	=25	=25	=25	=25	=25	=25
2G#/	(4.C#\	3	(12dd#/L]	2.e\	.	.
!	!	!	!	!	!	!LO:HP:t=dim. e:ext=s
.	.	.	12cc#/	.	.	>
.	.	.	12b/J	.	.	.
.	.	.	4.dd#/	.	5	.
.	8BB\	.	.	.	.	.
4Gn/	4AA#X\)	.	.	.	.	.
.	.	.	[8cc#/)	.	.	.
!!LO:LB:g=original
=26	=26	=26	=26	=26	=26	=26
!	!	!	!LO:TX:b:i:t=poco calando	!	!	!
2F#/	(4.BB\	3	(12cc#/L]	2.dn\	.	.
.	.	.	12b/	.	.	.
.	.	.	12a#X/J	.	.	.
.	.	.	4.cc#/	.	5	.
.	8AA#X\	.	.	.	.	.
4Fn/	4GG#\)	.	.	.	.	.
.	.	.	([8b/)	.	4	.
=27	=27	=27	=27	=27	=27	=27
(>4.E/	2AA\	4	(12b/L])	2c#\	5	.
.	.	.	12a/	.	.	.
.	.	.	12g#/J	.	.	.
.	.	.	4f#/	.	.	.
*	*	*above	*	*	*	*
8D#/)	.	2	.	.	.	.
4GG#/ 4G#	4ryy	.	4B#X/) 4g#	(8e\L	3 5	.
.	.	.	.	8d#\J)	.	.
*v	*v	*	*	*	*	*
=28	=28	=28	=28	=28	=28
!LO:TUP:b	!	!LO:TX:a:i:t=a tempo poco agitato	!	!	!
(12CC#/L	.	(8ee/L	4e\ 4g#	.	p
12GG#/	.	.	.	.	.
.	.	8cc#/	.	.	.
12C#/J	.	.	.	.	.
*	*below	*	*	*	*
!LO:TUP:a	!	!	!	!	!
12D#\L	4	8b/	4c#\ 4f#	.	.
12E\	.	.	.	.	.
.	.	8a/J)	.	.	.
12F#\J	.	.	.	.	.
!	!	!LO:TX:t=P:problem=klamra łukowa	!	!	!
4G#\)	.	4B#X/ 4g#	12f#\L	4 5	.
.	.	.	12e\	.	.
.	.	.	12d#\J	.	.
=29	=29	=29	=29	=29	=29
*^	*	*	*	*	*
!	!	!	!LO:TX:t=P:problem=klamra łukowa	!	!	!
8E/L	4E\	.	12c#/L 12e	4ryy	1 3	.
.	.	.	12d#/ 12f#	.	.	.
8CC#/J	.	.	.	.	.	.
.	.	.	12e/J 12g#	.	.	.
8E/L	4E\	.	2G#/ 2g#	(4e\	.	.
8BBB#X/J	.	.	.	.	.	.
8D#/L	4D#\	.	.	4d#\)	.	.
8BBBn/J	.	.	.	.	.	.
!!LO:LB:g=original
=30	=30	=30	=30	=30	=30	=30
!	!	!	!LO:TX:t=P:problem=klamra łukowa	!	!	!
8Dn/L	4D\	.	12e/L	4G#\ 4dn	.	.
.	.	.	12f#/	.	.	.
8BBB-X/J	.	.	.	.	.	.
.	.	.	12g#/J	.	.	.
8C#/L	4C#\	.	2g#/	4c#~\	.	.
8AAA/J	.	.	.	.	.	.
8BB#X/L	4BB#\	.	.	4B#X~\	.	.
8GGG#/J	.	.	.	.	.	.
=31	=31	=31	=31	=31	=31	=31
!	!	!	!LO:TX:t=P:problem=klamra łukowa	!	!	!
!	!	!	!LO:TX:b:i:t=rinforzando	!	!	!
8GGGn/L	4ryy	.	12A/L 12c# 12e 12a	4ryy	.	.
.	.	.	12dn/ 12b	.	3	.
[8GGn/J	.	1-5	.	.	.	.
.	.	.	12e/J 12cc#	.	4	.
*	*	*above	*	*	*	*
!	!	!	!LO:TX:t=P:problem=klamra łukowa	!	!	!
8Dn/L	2GG\]	2	[4ee/	12cc#\L	3 5	.
*	*	*	*	*	*below	*
.	.	.	.	12b\	1	.
[8C#/J	.	.	.	.	.	.
.	.	.	.	12b-X\J	2	.
4C#/] 4E	.	.	12ee/L]	4a\	.	.
.	.	.	12ff#/	.	3	.
.	.	.	12ggn/J	.	.	.
=32	=32	=32	=32	=32	=32	=32
8FF#/L	4FF#\	.	12aa/L	4a\ 4ddn	.	.
.	.	.	12bb/	.	3	.
8A/J	.	.	.	.	.	.
.	.	.	12bb#X/J	.	4	.
8EE#X/L	4EE#\	.	4ccc#/	12g#\L	1	.
.	.	.	.	12a\	1	.
8G#/J	.	.	.	.	.	.
.	.	.	.	12bn\J	2	.
*	*	*	*	*	*above	*
8EEn/L	4EE\	.	4gg#/	8cc#\L	3 5	<
8G#/J	.	.	.	8g#\J	.	.
=33	=33	=33	=33	=33	=33	=33
8EE-X/L	4EE-\	.	12aa/L	4gn\ 4cc#	.	.
*	*	*	*	*	*below	*
.	.	.	12bb/	.	3	.
8Gn/J	.	.	.	.	.	.
.	.	.	12bb#X/J	.	4	[
8DDn/L	4DD\	.	4ccc#/	12f#\L	.	.
.	.	.	.	12g#X\	.	.
8F#/J	.	.	.	.	.	.
.	.	.	.	12a\J	.	.
*	*	*	*	*	*above	*
8CC#/L	4CC#\	.	4e#X/ 4cc#	(8a\L	3 5	.
8E#X/J	.	.	.	8g#\J)	.	.
!!LO:LB:g=original
=34	=34	=34	=34	=34	=34	=34
8FF#/L	4ryy	.	(12f#/L 12a	4ryy	1 3	.
.	.	.	12g#/ 12b	.	.	.
8C#/	.	.	.	.	.	.
.	.	.	12a/J 12cc#	.	.	<
*	*	*below	*	*	*	*
8F#/	[4F#\	1-4	12ddn/L	4a\ 4dd	2	.
.	.	.	12ee/	.	.	.
[<8B#X/J	.	2	.	.	.	.
.	.	.	12ff#/J	.	.	.
!	!	!	!LO:TUP:a	!	!	!
4F#\] 4B#] 4d#	4ryy	.	12g#\L 12dd#X 12gg#	4ryy	.	.
.	.	.	12a#X\ 12aa#X	.	.	.
.	.	.	12b#X\J 12bb#X	.	.	[
*v	*v	*	*	*	*	*
=35	=35	=35	=35	=35	=35
!LO:TX:t=P:problem=klamra łukowa	!	!LO:TX:b:i:t=con passione	!	!	!
!LO:TUP:b	!	!	!	!	!
12EE/L	.	12cc#\L 12gg# 12ccc#	4ryy	.	.
12C#/	.	12dd#\ 12ddd#	.	.	.
12G#/J	.	12ee\J 12eee	.	.	.
!LO:TX:t=P:problem=klamra łukowa	!	!LO:TX:a:i:t=poco rit.	!	!	!
!LO:TUP:b	!	!	!	!	!
12FF#/L	.	4ccc#/)	8gg#\L 8ggg#	.	.
12C#/	.	.	.	.	.
.	.	.	8ff#\J 8fff#	.	.
12A/J	.	.	.	.	.
!LO:TX:t=P:problem=klamra łukowa	!	!	!	!	!
!LO:TUP:b	!	!	!	!	!
12GG#/L	.	(8ccc#/L	4dd#\ 4ddd#	.	>
12F#/	.	.	.	.	.
.	.	8bb#X/J)	.	.	.
12G#/J	.	.	.	.	]]
=36	=36	=36	=36	=36	=36
*Xtuplet	*	*	*	*	*
!	!	!LO:TX:a:i:t=a tempo	!	!	!
12EE/L	.	(8ggn/L	4gn\ 4b	.	pp
12BB/	.	.	.	.	.
.	.	8ee/	.	.	.
12E/J	.	.	.	.	.
12F#\L	4	8ddn/	8f#\L 8a	.	.
12Gn\	.	.	.	.	.
.	.	8ccn/J	8e\J 8g	.	.
12A\J	.	.	.	.	.
!	!	!LO:TX:t=P:problem=klamra łukowa	!	!	!
8B\L	.	4d#X/) 4b	12a\L	4 5	.
.	.	.	12g\	.	.
8BB\J	.	.	.	.	.
.	.	.	12f#\J	.	.
=37	=37	=37	=37	=37	=37
*^	*	*	*	*	*
8Gn/L	4G\	.	(>12e/L 12gn	4ryy	1 3	.
.	.	.	12f#/ 12a	.	.	.
8EE/J	.	.	.	.	.	.
.	.	.	12g/J 12b	.	.	.
8F#/L	4F#\	.	8ddn/L	(12f#\L	2 5	.
*	*	*	*	*	*below	*
.	.	.	.	12g\	1	.
*	*	*	*	*	*above	*
8DD#X/J	.	.	8ccn/J	.	4	.
*	*	*	*	*	*below	*
.	.	.	.	12g#X\J	2	.
*	*	*	*	*	*above	*
8Fn/L	4F\	.	4b/)	12a\L	1 3	.
.	.	.	.	12gn\	2	.
8DDn/J	.	.	.	.	.	.
.	.	.	.	12fn\J	.	.
!!LO:LB:g=original
=38	=38	=38	=38	=38	=38	=38
8E/L	4E\	.	(12gn/L	4e\)	2	<
.	.	.	12a/	.	.	.
8CC#/J	.	.	.	.	.	.
.	.	.	12b/J	.	.	.
8E-X/L	4E-X\	.	8ddn/L	(12e-X\L	5	.
*	*	*	*	*	*below	*
.	.	.	.	12f#X\	2	.
*	*	*	*	*	*above	*
8CCn/J	.	.	8ccn/J	.	5	.
*	*	*	*	*	*below	*
.	.	.	.	12g\J	1	.
*	*	*	*	*	*above	*
8Dn/L	4D\	.	4b/)	12a\L	3 4	.
.	.	.	.	12g\	.	.
[8GGn/J	.	2	.	.	.	.
.	.	.	.	12fn\J)	.	.
*	*	*	*v	*v	*	*
=39	=39	=39	=39	=39	=39
*	*	*^	*	*	*
!	!	!	!	!	!	!LO:DY:t=poco f
4CCn/ 4GG]	2ryy	.	.	(12e/L 12ccn	.	f
*	*	*	*	*	*below	*
.	.	.	.	12ddn/	2	.
.	.	.	.	12ee/J	.	.
*tuplet	*	*	*	*	*	*
!LO:TX:t=P:problem=klamra łukowa	!	!	!	!	!	!
!LO:TUP:a	!	!	!	!	!	!
12E\L	.	.	3	[2ggn\	.	.
12Fn\	.	.	.	.	.	.
12Gn\J	.	.	.	.	.	.
8A~/L	[4Cn\ 4Dn	2	4 5	.	.	.
8B~/J	.	.	.	.	.	.
*	*	*v	*v	*	*	*
*v	*v	*	*	*	*
=40	=40	=40	=40	=40
(12C\L] 12E 12cn	.	4gg\_	.	<
*	*above	*	*	*
12dn\	3	.	.	.
[12Gn\J [<12e	2	.	.	.
2G\]) [>2c 2e_> 2gn	.	8gg\L]	.	[
.	.	8ee\	.	.
.	.	8ddn\	.	.
.	.	[8ccn\J)	.	.
=41	=41	=41	=41	=41
*^	*	*^	*	*
[4g#X/	[2G#X\ 2c] 2e]	.	(12cc/L]	(2ccn\	.	.
.	.	.	12ddn/	.	.	.
.	.	.	[<12ee/J	.	.	.
!	!	!	!LO:TX:a:i:t=molto rit.	!	!	!
(8g#/L]	.	.	2ee/]) 2gg#X	.	.	>
8e/	.	.	.	.	.	.
*	*	*below	*	*	*	*
8d#X/	4E\ 4G#]	4 5	.	(8b#X\L)	.	]
*	*	*above	*	*	*	*
8c#X/J)	.	2	.	8cc#X\J)	.	.
*v	*v	*	*	*	*	*
!!LO:PB:g=original
=42	=42	=42	=42	=42	=42
!LO:TUP:b	!	!LO:TX:a:i:t=a tempo	!	!	!
(12FF#/L	.	(4.aa/	2.a\	.	pp
12C#/	.	.	.	.	.
12F#/J	.	.	.	.	.
!LO:TUP:a	!	!	!	!	!
12G#\L	.	.	.	.	.
12A\	.	.	.	.	.
.	.	8ff#/L	.	.	.
12B\J	.	.	.	.	.
*	*below	*	*	*	*
4F#\) 4B#X	4	8ee/	.	.	.
.	.	8dd#/J	.	.	.
=43	=43	=43	=43	=43	=43
!LO:TUP:b	!	!	!	!	!
(12EE/L	.	8gg#/L	2g#\	.	.
12C#/	.	.	.	.	.
.	.	8ee/	.	.	.
12E/J	.	.	.	.	.
!LO:TUP:a	!	!	!	!	!LO:HP:t=poco cresc.
12F#\L	3	8dd#/	.	.	<
12G#\	.	.	.	.	.
.	.	8cc#/	.	.	.
12A\J	.	.	.	.	.
4E\) 4A#X	2 4	8dd#/	4gn\	.	.
.	.	8ee/J	.	.	.
=44	=44	=44	=44	=44	=44
!LO:TUP:b	!	!	!	!	!
(12DD#/L	.	4.cc#/ 4.ff#	2.f#\	.	.
12AAn/	.	.	.	.	.
12D#/J	.	.	.	.	.
!LO:TUP:a	!	!	!	!	!
12E#X\L	4	.	.	.	.
12F#\	.	.	.	.	.
.	.	8dd#/L	.	.	.
12G#\J	.	.	.	.	.
4D#\) 4An	.	8cc#/	.	.	.
.	.	8b#X/J)	.	.	pp
*	*	*clefF4	*	*	*
=45	=45	=45	=45	=45	=45
*^	*	*	*	*	*
*	*	*	*	*	*above	*
!	!	!	!LO:TX:a:i:t=sciolto	!	!	!
4DDn/	4ryy	.	([<4F#/	12F#\L	2	.
.	.	.	.	12G#\	.	.
.	.	.	.	12A\J	.	.
*clefG2	*	*	*	*	*	*
(12f#/L	[4f#\	4	4F#\]) 4B#X	2ryy	.	<
12g#/	.	.	.	.	.	.
12a/J	.	.	.	.	.	.
*	*	*	*clefG2	*	*	*
!	!	!	!LO:TX:t=P:problem=klamra łukowa	!	!	!
!	!	!	!LO:TUP:a	!	!	!
4f#/]) 4b#X	4ryy	.	12ff#\L	.	2	.
.	.	.	12gg#\	.	.	.
.	.	.	12aa\J	.	.	[
*	*	*	*v	*v	*	*
*clefF4	*	*	*	*	*
!!LO:LB:g=original
=46	=46	=46	=46	=46	=46
(12F#/L	4BBBn\	.	4cc#\ 4dd# 4aa 4ccc#	.	.
12G#/	.	3	.	.	.
12A/J	.	.	.	.	.
4d#\)	2ryy	.	(12f#/L	1	.
.	.	.	12g#/	.	.
.	.	.	12a/J	.	.
*clefG2	*	*	*	*	*
!LO:TX:t=P:problem=klamra łukowa	!	!	!	!	!
12ff#\L	.	3	4dd#\)	.	.
12gg#\	.	.	.	.	.
12aa\J	.	.	.	.	.
*clefF4	*	*	*	*	*
=47	=47	=47	=47	=47	=47
*	*	*	*^	*	*
!LO:TUP:b	!	!	!	!	!	!
(12CC#/L	2ryy	.	4aa/	8ee\L 8eee	.	mf
12AA/	.	.	.	.	.	.
.	.	.	.	8cc#\ 8ccc#	.	.
12E/J	.	.	.	.	.	.
!LO:TUP:a	!	!	!	!	!	!
12D#\L	.	4	4ff#/	8b\ 8bb	.	.
12E\	.	.	.	.	.	.
.	.	.	.	8a\J 8aa	.	.
12F#\J	.	.	.	.	.	.
!	!	!	!LO:TX:t=P:problem=klamra łukowa	!	!	!
8G#/L)	4G#\	.	4b#X/	12f#\L 12g#	2 3 5	.
*	*	*	*	*	*below	*
.	.	.	.	12e\	1	.
8GG#/J	.	.	.	.	.	.
.	.	.	.	12d#\J	2	.
=48	=48	=48	=48	=48	=48	=48
8G#/L	4G#\	.	(>12e/L 12cc#	4ryy	.	.
.	.	.	12f#/	.	.	.
8CC#/J	.	.	.	.	.	.
.	.	.	12g#/J	.	.	.
8F#/L	4F#\	.	8bn/L	(12d#\L	.	.
*	*	*	*	*	*below	*
.	.	.	.	12e\	2	.
*	*	*	*	*	*above	*
8BBB#X/J	.	.	8a/J	.	5	.
*	*	*	*	*	*below	*
.	.	.	.	12e#X\J	1	.
*	*	*	*	*	*above	*
8Dn/L	4D\	.	4g#/)	12f#\L	3 4	.
.	.	.	.	12en\	.	.
8BBBn/J	.	.	.	.	.	.
.	.	.	.	12dn\J)	.	.
=49	=49	=49	=49	=49	=49	=49
8C#/L	4C#\	.	(12e/L	4c#\	2	.
.	.	.	12f#/	.	.	.
8AAA#X/J	.	.	.	.	.	.
!	!	!	!	!	!	!LO:HP:a:t=cresc. sempre:ext=s
.	.	.	12g#/J	.	.	<
8Cn/L	4C\	.	8b/L	(12cn\L	.	.
.	.	.	.	12d#\	.	.
8AAAn/J	.	.	8a/J	.	5	.
.	.	.	.	12e\J	.	.
!	!	!	!	!LO:TX:t=P:problem=fing wyświetla z złej kolejności bez względu na zapis 3 4/4 3	!	!
8BB/L	4BB\	.	4g#/)	12f#\L	3 4	.
.	.	.	.	12e\	.	.
8EE/J	.	.	.	.	.	.
.	.	.	.	12dn\J)	.	.
!!LO:LB:g=original
=50	=50	=50	=50	=50	=50	=50
*	*	*	*Xtuplet	*	*	*
4cn/	8c\L	.	12ccn/L	4a\	2	.
.	.	.	12ddn/	.	.	.
.	8AA\J	.	.	.	.	.
.	.	.	12ee/J	.	.	.
*	*	*	*	*tuplet	*below	*
4B/	8B\L	.	8ggn/L	12b\L	2	.
.	.	.	.	12cc\	1	.
*	*	*	*	*	*above	*
!	!	!	!LO:TX:a:i:t=allargando	!	!	!
.	8GG#\J	.	8ffn/J	.	5	.
*	*	*	*	*	*below	*
.	.	.	.	12cc#X\J	2	.
*	*	*	*	*	*above	*
4B-X/	8B-\L	.	4ee/	12dd\L	3 4	.
.	.	.	.	12ccn\	.	.
.	8GGn\J	.	.	.	.	.
.	.	.	.	12b-X\J	.	.
=51	=51	=51	=51	=51	=51	=51
4A/	8A\L	.	12ccn/L	4a\	2	.
.	.	.	12ddn/	.	.	.
.	8FF#\J	.	.	.	.	.
.	.	.	12ee/J	.	.	.
4A-X/	8A-X\L	.	8ggn/L	12a-X\L	.	.
*	*	*	*	*	*below	*
.	.	.	.	12bn\	2	.
*	*	*	*	*	*above	*
!	!	!	!LO:TX:a:i:t=allargando	!	!	!
.	8FFn\J	.	8ffn/J	.	5	.
*	*	*	*	*	*below	*
.	.	.	.	12cc\J	1	.
*	*	*	*	*	*above	*
4Gn/	8G\L	.	4ee/	12dd\L	3 4	.
.	.	.	.	12cc\	1	.
.	8CCn\J	.	.	.	.	.
.	.	.	.	12a#X\J	2	.
*v	*v	*	*	*	*	*
=52	=52	=52	=52	=52	=52
!	!	!LO:TX:t=P:problem=klamra łukowa	!	!	!
!	!	!LO:TX:a:B:t=Tempo I.	!	!	!
8EE~>/L 8BB 8E	.	4gg#X/	12g#X\L 12bn 12ee	.	f
*	*	*	*	*below	*
.	.	.	12an\	1	.
!LO:TX:b:i:t=cantato	!	!	!	!	!
8G#X~>/J	3	.	.	.	.
!	!	!LO:TX:b:i:t=espress.	!	!	!
.	.	.	12b\J	2	.
(4.B\	.	(8dd#/L	4g#\ 4ee	.	.
.	.	8cc#/J)	.	.	.
.	.	4f#~>/ 4b 4dd# 4ff#	4ryy	.	.
8A\	.	.	.	.	.
=53	=53	=53	=53	=53	=53
12G#\L	.	(4.ee/	2e\ 2b	.	.
12F#\	.	.	.	.	.
12E\J	.	.	.	.	.
4G#\	2	.	.	.	.
*	*	*	*	*above	*
.	.	8cc#/L)	.	4	.
!	!	!LO:TX:a:i:t=poco	!	!	!
4F#\)	.	(8e/ 8cc#	4a\	5	.
.	.	8d#/J) 8b	.	4	.
!!LO:LB:g=original
=54	=54	=54	=54	=54	=54
*^	*	*	*	*	*
*	*	*^	*	*	*	*
!	!	!	!	!LO:TX:a:i:t=a poco	!LO:TUP:a	!	!
(8E/L	4EE\	.	.	4B~/ 4b	(12g#\L	4	.
.	.	.	.	.	12f#\	.	.
*	*	*	*	*	*	*	*
8C#/J)	.	.	2	.	.	.	.
.	.	.	.	.	12e\J	.	.
(4.C#/	2FF#\	1	4	4A#X~/ 4a#X	8g#\L	.	.
.	.	.	.	.	8f#\	.	.
.	.	.	.	4An~/ 4an	8e\	.	.
8BB/)	.	.	.	.	8d#\J)	.	.
*	*	*v	*v	*	*	*	*
=55	=55	=55	=55	=55	=55	=55
!	!	!	!LO:TX:a:i:t=poco rit.	!	!	!
(8E/L	4EE\	.	(12g#/L	4G#\	.	>
.	.	.	12f#/	.	.	.
8C#/J)	.	.	.	.	.	.
.	.	.	12e/J	.	.	.
(4.C#/	2FF#\	.	8gn/L	4A#X\	5	.
.	.	.	8f#/	.	.	.
.	.	.	8e/	4An\	3	.
8BB/)	.	.	8d#/J)	.	.	]
*v	*v	*	*	*	*	*
=56	=56	=56	=56	=56	=56
!	!	!LO:TX:b:i:t=dolce	!	!	!
!	!	!LO:TX:a:i:t=a tempo	!	!	!
4EE/ 4BB	.	(8e/L	2G#\ 2e	2	p
.	.	8g#/J	.	.	.
*clefG2	*	*	*	*	*
8r	.	4.b/	.	.	.
(8cc#\	3	.	.	.	.
4dd#\)	.	.	4B\	.	.
.	.	8a/	.	5	.
*clefF4	*	*	*	*	*
=57	=57	=57	=57	=57	=57
*^	*	*	*	*	*
4EE/ 4BB	4ryy	.	12g#/L	2B\	.	.
.	.	.	12f#/	.	.	.
.	.	.	12e/J	.	.	.
*clefG2	*	*	*	*	*	*
8b/L	[4b\	4	4g#/	.	5	.
8cc#/J	.	.	.	.	.	.
4dd#/	4b\]	.	4f#/)	4A\	4	.
*v	*v	*	*	*	*	*
*clefF4	*	*	*	*	*
=58	=58	=58	=58	=58	=58
4EE/ 4BB	.	(8e/L	4G#\	5	.
.	.	8c#/J)	.	1 4	.
*clefG2	*	*	*	*	*
(<8f#\L 8dd#	2 5	(4.c#/	(8A\L	1	.
8g#\J 8ee	1 4	.	8G#\	2	.
8a\) 8ff#	1 3	.	8F#\J)	.	.
8r	.	8B/)	8r	.	.
*clefF4	*	*	*	*	*
!!LO:LB:g=original
=59	=59	=59	=59	=59	=59
4EE/ 4BB	.	(8e/L	4G#\	.	.
.	.	8c#/J)	.	.	.
*clefG2	*	*	*	*	*
(8f#\L 8dd#	.	(4.c#/	(8A\L	.	.
8g#\J 8ee	.	.	8G#\	.	.
8a\) 8ff#	.	.	8F#\J)	.	.
8r	.	8B#X/)	8ryy	3	.
*clefF4	*	*	*	*	*
=60	=60	=60	=60	=60	=60
*^	*	*	*	*	*
!	!	!	!	!	!	!LO:HP:t=poco cresc. ed incalzando:ext=s
2.E/	(4.AA\	3	(8c#/L	2.c#\	1	<
.	.	.	8e/J	.	.	.
.	.	.	4.cc#/	.	.	.
.	8GG#\	.	.	.	.	.
.	4FF#\)	.	.	.	.	.
.	.	.	8b/	.	5	.
*v	*v	*	*	*	*	*
=61	=61	=61	=61	=61	=61
.	.	(<16qqa/LL	.	4	.
.	.	16qqb/JJ	.	.	.
4BB/	.	12a/L)	4c#\ [4d#	.	.
.	.	12g#/	.	5	.
.	.	12f#/J	.	3	.
(>N[8EE/L	.	4.a/	4cn\ 4d#]	.	.
[8BB/J	.	.	.	.	.
4EE/N]) 4BB] 4E	.	.	4B\ 4e	.	.
.	.	8g#/)	.	.	.
=62	=62	=62	=62	=62	=62
*^	*	*	*	*	*
2.G#/	(4.C#\	3	(8e/L	2.e\	1	.
.	.	.	8g#/J	.	.	.
.	.	.	4.ee/	.	.	.
.	8BB\	.	.	.	.	.
.	4AA#X\)	.	.	.	.	.
.	.	.	8dd#/	.	.	.
=63	=63	=63	=63	=63	=63	=63
.	.	.	(<16qqcc#/LL	.	3	.
.	.	.	16qqdd#/JJ	.	.	.
4D#\ 4F##X	4ryy	.	12cc#/L)	4e\	.	.
.	.	.	12b/	.	5	.
.	.	.	12a#X/J	.	4	.
(8GG#/L	[4GG#\	.	4.cc#/	4e\ 4f##X	.	.
[8D#/J	.	.	.	.	.	.
4GG#/]) 4D#] 4G#	4ryy	.	.	4d#\ 4g#	.	.
.	.	.	[8b/)	.	.	.
!!LO:PB:g=original
=64	=64	=64	=64	=64	=64	=64
2.E/	(4.AA\	3	(12b/L]	2c#\	.	.
.	.	.	12a/	.	.	.
.	.	.	12g#/J	.	.	.
.	.	.	4.b/	.	5	.
.	8GG#\	.	.	.	.	.
!	!	!	!	!	!	!LO:HP:t=dim.
.	4FF#\)	.	.	4cn\	.	>
!	!	!	!LO:TX:b:i:t=e poco calando	!	!	!
.	.	.	[8a/)	.	.	.
=65	=65	=65	=65	=65	=65	=65
2D#/	(4.GG#\	3	(12a/L]	2.B\	.	.
.	.	.	12g#/	.	.	.
.	.	.	12f#/J	.	.	.
.	.	.	4.a/	.	5	.
.	8FF#\	.	.	.	.	.
4Dn/	4EE#X\)	.	.	.	.	.
.	.	.	[8g#/)	.	.	.
=66	=66	=66	=66	=66	=66	=66
*	*	*^	*	*	*	*
(4.C#/	2.FF#\	2	4	(12g#/L]	2A\	.	.
.	.	.	.	12f#/	.	3	.
.	.	.	.	12e/J	.	5	.
.	.	.	.	4d#/	.	4	.
8BB#X/)	.	1	.	.	.	.	.
4GG#/	.	.	.	4B#X/) 4e	(8G#\L	2 3 5	.
.	.	.	.	.	8F#\J)	.	.
*	*	*v	*v	*	*	*	*
=67	=67	=67	=67	=67	=67	=67
!	!	!	!LO:TX:a:i:t=a tempo	!	!	!
4AAA/	4ryy	.	(12c#/L	[4E\ [4c#	2	pp
.	.	.	12d#/	.	.	.
.	.	.	12e/J	.	.	.
*clefG2	*	*	*	*	*	*
*	*Xtuplet	*	*	*	*	*
[<4cc#/	12cc#\L	4	4f##X/)	4E\] 4c#]	.	.
.	12dd#\	.	.	.	.	.
.	12ee\J	.	.	.	.	.
*	*	*	*Xtuplet	*	*	*
4cc#\] 4ff##X	4ryy	.	(12ccc#\L	4ryy	2	.
.	.	.	12ddd#\	.	.	.
.	.	.	12eee\J	.	.	.
*	*	*	*v	*v	*	*
*clefF4	*	*	*	*	*
=68	=68	=68	=68	=68	=68
*tuplet	*	*	*	*	*
(12C#/L	4FFF#\	.	4gg#\) 4aa#X 4eee 4ggg#	.	<
12D#/	.	3	.	.	.
12E/J	.	.	.	.	.
*	*	*	*tuplet	*	*
4A#X\)	2ryy	.	(12c#/L	1	.
.	.	.	12d#/	.	.
.	.	.	12e/J	.	[
*clefG2	*	*	*	*	*
*Xtuplet	*	*	*	*	*
!LO:TX:t=P:problem=klamra łukowa	!	!	!	!	!
12cc#\L	.	3	4a#X/)	.	.
12dd#\	.	.	.	.	.
12ee\J	.	.	.	.	.
*v	*v	*	*	*	*
*clefF4	*	*	*	*
!!LO:LB:g=original
=69	=69	=69	=69	=69
*	*	*^	*	*
*tuplet	*	*	*	*	*
!LO:TUP:b	!	!	!	!	!
(12GGG#/L	.	(8bb/L	4b\ 4dd#	.	p
12GG#/	.	.	.	.	.
.	.	8gg#/	.	.	.
*	*above	*	*	*	*
12D#/J	5	.	.	.	.
!LO:TUP:a	!	!	!	!	!
12G#\L	.	8ff#/	4g#\ 4b	.	.
12A#X\	.	.	.	.	.
.	.	8ee/J	.	.	.
12B\J	.	.	.	.	.
!	!	!LO:TX:t=P:problem=klamra łukowa	!	!	!
8A#\L	.	4f##X/) 4dd#	12cc#\L	4	.
.	.	.	12b\	.	.
8D#\J)	.	.	.	.	.
.	.	.	12a#X\J	.	.
=70	=70	=70	=70	=70	=70
*^	*	*	*	*	*
4B/	8B\L	.	(12b/L	4g#\	.	.
.	.	.	12cc#/	.	.	.
.	8GG#\J	.	.	.	.	.
.	.	.	12dd#/J	.	.	.
4A#X/	8A#\L	.	8ff#/L	(12a#X\L	.	.
.	.	.	.	12b\	.	.
.	8GGn\J	.	8ee/J	.	.	.
.	.	.	.	12b#X\J	.	.
4An/	8A\L	.	4dd#/)	12cc#\L	3 4	<
.	.	.	.	12bn\	.	.
.	8FF#\J	.	.	.	.	.
.	.	.	.	12an\J)	.	.
=71	=71	=71	=71	=71	=71	=71
4G#/	8G#\L	.	(12b/L	4g#\	2	.
.	.	.	12cc#/	.	.	.
.	8EE#X\J	.	.	.	.	.
.	.	.	12dd#/J	.	.	.
4Gn/	8G\L	.	8ff#/L	(12gn\L	.	[
.	.	.	.	12a#X\	.	.
.	8EEn\J	.	8ee/J	.	5	.
.	.	.	.	12b\J	.	.
4F#/	8F#\L	.	4dd#/)	12cc#\L	3 4	.
.	.	.	.	12b\	.	.
*	*	*below	*	*	*	*
.	[>8BB\J	2	.	.	.	.
.	.	.	.	12an\J)	.	.
*v	*v	*	*	*	*	*
=72	=72	=72	=72	=72	=72
!	!	!LO:TX:b:i:t=espress.	!	!	!
4EE/ 4BB]	.	(8ee/L	2g#\ 2ee	2	p
.	.	8gg#/J	.	.	.
(12G#\L	2	4.bb/	.	.	.
12F#\	.	.	.	.	.
12E\J	.	.	.	.	.
4B\)	.	.	4a\ 4dd#	.	.
.	.	8aa/	.	.	.
!!LO:LB:g=original
=73	=73	=73	=73	=73	=73
*^	*	*	*^	*	*
4EE/ 4BB	4ryy	.	12gg#/L	2g#\	4ryy	.	.
.	.	.	12ff#/	.	.	.	.
.	.	.	12ee/J	.	.	.	.
4B/	(12B\L	2	4gg#/	.	2b/	.	.
.	12A\	.	.	.	.	.	.
.	12G#\J	.	.	.	.	.	.
4A\) 4d#	4ryy	.	4f#/) 4ff#	4ryy	.	.	.
*v	*v	*	*	*	*	*	*
=74	=74	=74	=74	=74	=74	=74
4EE/ 4BB	.	(8g#/L 8ee	2e\	4ryy	.	.
.	.	8cc#/J)	.	.	4	.
*clefG2	*	*	*	*	*	*
*Xtuplet	*	*	*	*	*	*
(12ff#\L	5	(4.cc#/	.	2a\	.	.
12gg#\	3	.	.	.	.	.
12aa\J	.	.	.	.	.	.
4fff#\)	.	.	4d#\	.	.	.
.	.	8b/)	.	.	.	.
*clefF4	*	*	*	*	*	*
=75	=75	=75	=75	=75	=75	=75
4EE/ 4BB	.	(8ee/L	4ryy	4e\ 4g#	.	<
.	.	8cc#/J)	.	.	.	.
*tuplet	*	*	*	*	*	*
(12F#\L	5	(4.cc#/	2a\	4d#\	5	.
12G#\	.	.	.	.	.	.
12A\J	.	.	.	.	.	.
4f#\)	.	.	.	4dn\	.	.
.	.	8b#X/)	.	.	4	.
*	*	*	*v	*v	*	*
=76	=76	=76	=76	=76	=76
*^	*	*	*	*	*
(4E/	2.EE\	.	(8cc#/L	4c#\ 4g#	.	[
.	.	.	8a/J)	.	.	.
4D#/	.	.	(4.a/	4cn\ 4f#	5	.
*	*	*above	*	*	*	*
4Dn/	.	1	.	4B\ 4fn	.	>
.	.	.	8g#/)	.	.	.
=77	=77	=77	=77	=77	=77	=77
4C#/	2.EE\	2	(8a/L	4A\ 4e	.	.
.	.	.	8f#/J)	.	3	.
4Cn/	.	1	2A/ 2f#	4.e\	4	.
4BB/)	.	3	.	.	.	.
.	.	.	.	8d#\	.	]
*v	*v	*	*	*	*	*
!!LO:LB:g=original
=78	=78	=78	=78	=78	=78
4EE/ 4Cn	2	(8e/L	4Gn\	5	.
.	.	8cn/J)	.	3	.
2EE/ 2D#	.	(4.c/	2F#\ 2A	4	.
.	.	8B/)	.	.	.
=79	=79	=79	=79	=79	=79
*^	*	*	*	*	*
4Dn/	2.EE\	1	(8e/L	(4G#\	2 5	<
.	.	.	8B/J)	.	3	.
2C#/	.	2	(4.B/	4Gn\	4	[
.	.	.	.	4F#\)	.	.
.	.	.	8A#X/)	.	.	.
*v	*v	*	*	*	*	*
=80	=80	=80	=80	=80	=80
4EE/ 4Cn 4Fn	.	(12An/L	2ryy	1	.
.	.	12B/	.	.	.
.	.	12cn/J	.	.	.
*clefG2	*	*	*	*	*
*	*below	*	*	*	*
(12a\L	4	4fn/)	.	.	.
12b\	.	.	.	.	.
12ccn\J	.	.	.	.	.
4ffn\)	.	([<4aa/	12aa\L	1	>
.	.	.	12bb\	.	.
.	.	.	12cccn\J	.	.
*	*	*v	*v	*	*
*clefF4	*	*	*	*
=81	=81	=81	=81	=81
*^	*	*	*	*
(12F#X/L	4EE\ 4BB	.	4aa\]) 4ddd#	.	.
12G#/	.	3	.	.	.
12A/J	.	.	.	.	.
!	!	!	!LO:TUP:b	!	!
4d#\)	2ryy	.	(12f#X/L	1	.
.	.	.	12g#/	.	.
.	.	.	12a/J	.	.
*clefG2	*	*	*	*	*
!LO:TX:t=P:problem=klamra łukowa	!	!	!	!	!
12ff#\L	.	3	4dd#\)	.	]
12gg#\	.	.	.	.	.
12aa\J	.	.	.	.	.
*clefF4	*	*	*	*	*
!!LO:LB:g=original
=82	=82	=82	=82	=82	=82
*	*	*	*^	*	*
!LO:TUP:b	!	!	!	!	!	!
(12EE/L	2ryy	.	(8g#\L 8ee 8bb	2ryy	.	.
12BB/	.	.	.	.	.	.
.	.	.	8gg#\	.	4	.
12E/J	.	.	.	.	.	.
!LO:TUP:a	!	!	!	!	!	!
12G#\L	.	3	8ff#\	.	.	.
12A\	.	.	.	.	.	.
.	.	.	8ee\J	.	.	.
*	*	*above	*	*	*	*
12B\J	.	.	.	.	.	.
!	!	!	!LO:TX:t=P:problem=klamra łukowa	!	!	!
8c#/L	4E\	2	4b/)	12a\L	1 4	.
.	.	.	.	12g#\	3	.
8d#/J)	.	.	.	.	.	.
.	.	.	.	12f#\J	.	.
=83	=83	=83	=83	=83	=83	=83
!LO:TUP:b	!	!	!	!	!	!
(>12EEE/L	2ryy	.	(8b/L	4G#\ 4e	.	.
12EE/	.	.	.	.	.	.
.	.	.	8g#/	.	.	.
*	*	*below	*	*	*	*
12BB/J	.	2	.	.	.	.
!LO:TUP:b	!	!	!	!	!	!
12AA#X/L	.	3	8f#/	2ryy	.	.
*	*	*above	*	*	*	*
12BB/	.	1	.	.	.	.
.	.	.	8e/J)	.	.	.
*	*	*below	*	*	*	*
12C#/J	.	2	.	.	.	.
*	*	*	*clefF4	*	*	*
12D#/L	[4EE\	.	4A\ [4B	.	1 4	.
12C#/	.	.	.	.	.	.
12D#/J	.	.	.	.	.	.
=84	=84	=84	=84	=84	=84	=84
*	*	*	*	*	*below	*
4EE/]) 4BB	4ryy	.	4B/]	(12G#\L	3	.
!	!	!	!LO:TX:b:i:t=morendo	!	!	!
.	.	.	.	12F#\	.	.
.	.	.	.	[12E\J	.	.
*clefG2	*	*	*	*	*above	*
(12g#/L	[>4g#\	2	4E\]) 4B	4ryy	5	.
12f#/	.	.	.	.	.	.
[<12e/J	.	.	.	.	.	.
*	*	*	*clefG2	*	*	*
*	*	*	*	*Xtuplet	*	*
4e/_<) 4g#_ [4b	4ryy	.	(<[4gg#/	12gg#\L	3	.
.	.	.	.	12ff#\	.	.
.	.	.	.	[12ee\J	.	.
*v	*v	*	*	*	*	*
*	*	*v	*v	*	*
=85	=85	=85	=85	=85
4e/] 4g#] 4b]	.	4ee\]) 4gg#] 4bb	.	.
*clefF4	*	*	*	*
*	*above	*	*	*
4E\ 4B	2	4e/ 4g# 4b	4	.
*	*	*clefF4	*	*
[4EE/ [4BB	.	[4E\ [4G# [4B	4	.
=86	=86	=86	=86	=86
4EE/] 4BB]	.	4E\] 4G#] 4B]	.	.
4EEE/	.	4r	.	.
4r;	.	4r;	.	.
==	==	==	==	==
*-	*-	*-	*-	*-
!!!system-decoration: {(s1,s2)}
!!!RDF**kern: < = below
!!!RDF**kern: > = above
!!!RDF**kern: N = linked
!!!ENC: Filip Voros
!!!END: 2023-10-22
!!!EED: Marta Chmielewska
!!!EEV: 2023-10-27
